X: 233
T: They Depend Upon You
C: Teton Sioux band 1911-1914
N: Derived from sioux228.krn
O: South Dakota, U.S.A.
N: Teton Sioux Music by Frances Densmore, 1918
Z: transcribed to **kern format by Craig Sapp
L: 1/16
M: 3/4
Q: 1/4=58
K: Bb clef=treble
%%linebreak <none>
D2 [I:setbarnb 1]| 
d2> d2 d2 d (3e/ f/ e/ (d c) (3c (d c) ||  
[M:2/4]B4G4 | 
G6A2 | 
B2> B2B4 ||  
[M:3/4]B4(B2 c2) (d B2) B ||  
[M:2/4]B4G4 | 
G2 (3A B A G3 F ||  
[M:3/4]D2< D2-D8 ||  
[M:2/4]D6D2 | 
G4G3 G ||  
[M:3/4]G4G4G3 A ||  
[M:2/4]B4B4 ||  
[M:3/4]G4G4(G F3) | 
D4z8 |]  



